Newaita/actions/16/network-disconnect.svg

<svg height="16" viewBox="0 0 16 16" width="16" xmlns="http://www.w3.org/2000/svg"><path d="m7.9375 1.449219c-3.664062 0-6.613281 2.949219-6.613281 6.613281s2.949219 6.617188 6.613281 6.617188 6.617188-2.953126 6.617188-6.617188-2.953126-6.613281-6.617188-6.613281zm0 1.320312c.375 0 .738281.039063 1.089844.113281.300781.597657.546875 1.222657.738281 1.871094h-3.65625c.191406-.648437.441406-1.273437.738281-1.871094.351563-.074218.714844-.113281 1.089844-.113281zm-1.964844.375c-.226562.519531-.421875 1.058594-.574218 1.609375h-1.597657c.566407-.707031 1.3125-1.265625 2.171875-1.609375zm3.933594 0c.855469.34375 1.601562.902344 2.167969 1.609375h-1.597657c-.152343-.550781-.34375-1.089844-.570312-1.609375zm-6.554688 2.273438h1.882813c-.164063.746093-.261719 1.519531-.28125 2.316406h-2.296875c.050781-.84375.296875-1.628906.695312-2.316406zm2.585938 0h4.003906c.171875.746093.273438 1.519531.296875 2.316406h-4.597656c.019531-.796875.121094-1.570313.296875-2.316406zm4.703125 0h1.886719c.394531.6875.640625 1.472656.691406 2.316406h-2.296875c-.019531-.796875-.117187-1.570313-.28125-2.316406zm-7.984375 2.976562h2.296875c.019531.792969.117187 1.566407.28125 2.316407h-1.882813c-.398437-.691407-.644531-1.476563-.695312-2.316407zm2.984375 0h4.597656c-.023437.792969-.125 1.570313-.296875 2.316407h-4.003906c-.175781-.746094-.277344-1.523438-.296875-2.316407zm5.28125 0h2.296875c-.050781.839844-.296875 1.625-.691406 2.316407h-1.886719c.164063-.75.261719-1.523438.28125-2.316407zm-7.121094 2.976563h1.597657c.152343.554687.347656 1.089844.574218 1.609375-.859375-.34375-1.605468-.902344-2.171875-1.609375zm2.308594 0h3.65625c-.191406.648437-.4375 1.277344-.738281 1.871094-.351563.074218-.714844.113281-1.089844.113281s-.738281-.039063-1.089844-.113281c-.296875-.59375-.546875-1.222657-.738281-1.871094zm4.367187 0h1.597657c-.566407.707031-1.3125 1.265625-2.167969 1.609375.226562-.519531.417969-1.054688.570312-1.609375zm0 0" fill="#424242" fill-opacity=".392157"/></svg>

<svg xmlns="http://www.w3.org/2000/svg" xmlns:xlink="http://www.w3.org/1999/xlink" width="16px" height="16px" viewBox="0 0 16 16" version="1.1">
<g id="surface1">
<path style=" stroke:none;fill-rule:nonzero;fill:rgb(25.882354%,25.882354%,25.882354%);fill-opacity:0.392157;" d="M 7.9375 1.449219 C 4.273438 1.449219 1.324219 4.398438 1.324219 8.0625 C 1.324219 11.726562 4.273438 14.679688 7.9375 14.679688 C 11.601562 14.679688 14.554688 11.726562 14.554688 8.0625 C 14.554688 4.398438 11.601562 1.449219 7.9375 1.449219 Z M 7.9375 2.769531 C 8.3125 2.769531 8.675781 2.808594 9.027344 2.882812 C 9.328125 3.480469 9.574219 4.105469 9.765625 4.753906 L 6.109375 4.753906 C 6.300781 4.105469 6.550781 3.480469 6.847656 2.882812 C 7.199219 2.808594 7.5625 2.769531 7.9375 2.769531 Z M 5.972656 3.144531 C 5.746094 3.664062 5.550781 4.203125 5.398438 4.753906 L 3.800781 4.753906 C 4.367188 4.046875 5.113281 3.488281 5.972656 3.144531 Z M 9.90625 3.144531 C 10.761719 3.488281 11.507812 4.046875 12.074219 4.753906 L 10.476562 4.753906 C 10.324219 4.203125 10.132812 3.664062 9.90625 3.144531 Z M 3.351562 5.417969 L 5.234375 5.417969 C 5.070312 6.164062 4.972656 6.9375 4.953125 7.734375 L 2.65625 7.734375 C 2.707031 6.890625 2.953125 6.105469 3.351562 5.417969 Z M 5.9375 5.417969 L 9.941406 5.417969 C 10.113281 6.164062 10.214844 6.9375 10.238281 7.734375 L 5.640625 7.734375 C 5.660156 6.9375 5.761719 6.164062 5.9375 5.417969 Z M 10.640625 5.417969 L 12.527344 5.417969 C 12.921875 6.105469 13.167969 6.890625 13.21875 7.734375 L 10.921875 7.734375 C 10.902344 6.9375 10.804688 6.164062 10.640625 5.417969 Z M 2.65625 8.394531 L 4.953125 8.394531 C 4.972656 9.1875 5.070312 9.960938 5.234375 10.710938 L 3.351562 10.710938 C 2.953125 10.019531 2.707031 9.234375 2.65625 8.394531 Z M 5.640625 8.394531 L 10.238281 8.394531 C 10.214844 9.1875 10.113281 9.964844 9.941406 10.710938 L 5.9375 10.710938 C 5.761719 9.964844 5.660156 9.1875 5.640625 8.394531 Z M 10.921875 8.394531 L 13.21875 8.394531 C 13.167969 9.234375 12.921875 10.019531 12.527344 10.710938 L 10.640625 10.710938 C 10.804688 9.960938 10.902344 9.1875 10.921875 8.394531 Z M 3.800781 11.371094 L 5.398438 11.371094 C 5.550781 11.925781 5.746094 12.460938 5.972656 12.980469 C 5.113281 12.636719 4.367188 12.078125 3.800781 11.371094 Z M 6.109375 11.371094 L 9.765625 11.371094 C 9.574219 12.019531 9.328125 12.648438 9.027344 13.242188 C 8.675781 13.316406 8.3125 13.355469 7.9375 13.355469 C 7.5625 13.355469 7.199219 13.316406 6.847656 13.242188 C 6.550781 12.648438 6.300781 12.019531 6.109375 11.371094 Z M 10.476562 11.371094 L 12.074219 11.371094 C 11.507812 12.078125 10.761719 12.636719 9.90625 12.980469 C 10.132812 12.460938 10.324219 11.925781 10.476562 11.371094 Z M 10.476562 11.371094 "/>
</g>
</svg>
